!!!!SEGMENT: T710_Cop-w13p24m3-1h25m1-5.krn
!!!COM: Copland, Aaron
!!!OTL: El Salón México (The Mexico Salon) for Orchestra
!!!OMV: single movement work
!!!OMD:
!!!AGN: Orchestral; Programmatic
!!!AGN-sub: Programmatic
!!!CNT: American
!!!ODT: 1936
!!!OPR: El Salón México (The Mexico Salon) for Orchestra
!!!filename: T710_Cop-w13p24m3-1h25m1-5.krn
**kern	**dynam	**kern	**dynam	**kern	**dynam	**kern	**dynam	**kern	**dynam	**kern	**dynam	**kern	**dynam	**kern	**dynam	**kern	**dynam	**kern	**dynam	**kern	**dynam
*grp:A	*	*grp:A	*	*grp:A	*	*grp:A	*	*grp:B	*	*grp:A	*	*grp:A	*	*grp:A	*	*grp:A	*	*grp:A	*	*grp:A	*
*part11	*	*part10	*	*part9	*	*part8	*	*part7	*	*part6	*	*part5	*	*part4	*	*part3	*	*part2	*	*part1	*
*staff11	*	*staff10	*	*staff9	*	*staff8	*	*staff7	*	*staff6	*	*staff5	*	*staff4	*	*staff3	*	*staff2	*	*staff1	*
*ICstr	*	*ICstr	*	*ICstr	*	*ICstr	*	*ICstr	*	*ICbras	*	*ICbras	*	*ICww	*	*ICww	*	*ICww	*	*ICww	*
*Icello	*	*Iviola	*	*Ivioln	*	*Ivioln	*	*Ivioln	*	*Itromp	*	*Icor	*	*Ifagot	*	*Iclarb	*	*Iclars	*	*Iflt	*
*I"Violoncello	*	*I"Viola	*	*I"Violin II	*	*I"Violin I	*	*I"Violin I	*	*I"Trumpet in C 1, 2, 3	*	*I"Horn in F 1, 2	*	*I"Bassoon 1, 2	*	*I"Bass Clarinet in Bb	*	*I"Clarinet in Bb 1, 2	*	*I"Flute 1, 2	*
*I'vc	*	*I'vla	*	*I'vn	*	*I'vn	*	*I'vn	*	*I'tp	*	*I'cor-fr	*	*I'bn	*	*I'b-cl	*	*I'cl	*	*I'fl	*
*clefF4	*	*clefC3	*	*clefG2	*	*clefG2	*	*clefG2	*	*clefG2	*	*clefG2	*	*clefF4	*	*clefF4	*	*clefG2	*	*clefG2	*
*	*	*	*	*	*	*	*	*	*	*	*	*ITrd4c7	*	*	*	*ITrd1c2	*	*ITrd1c2	*	*	*
*k[]	*	*k[]	*	*k[]	*	*k[]	*	*k[]	*	*k[]	*	*k[b-]	*	*k[]	*	*k[b-e-]	*	*k[b-e-]	*	*k[]	*
*	*	*	*	*	*	*	*	*	*	*	*	*	*	*	*	*	*	*	*	*	*
!!LO:TX:omd:tempo:a:t=[Moderato molto]\n[[quarter]=92]
*M6/8	*	*M6/8	*	*M6/8	*	*M6/8	*	*M6/8	*	*M6/8	*	*M6/8	*	*M6/8	*	*M6/8	*	*M6/8	*	*M6/8	*
=1	=1	=1	=1	=1	=1	=1	=1	=1	=1	=1	=1	=1	=1	=1	=1	=1	=1	=1	=1	=1	=1
*	*	*	*	*	*	*	*	*	*	*	*	*^	*	*	*	*	*	*	*	*	*
*	*	*	*	*	*	*	*	*^	*	*	*	*	*	*	*	*	*	*	*	*	*	*
!	!	!	!	!	!	!	!	!	!	!	!	!LO:DY:t=%s espress.	!	!	!	!	!	!	!	!	!	!	!LO:DY:t=%s espress.
!	!LO:DY:ed=brack	!	!	!	!	!	!LO:DY:ed=brack	!	!	!LO:DY:ed=brack	!LO:TX:a:t=[con sord.]	!LO:DY:ed=brack	!LO:TX:a:t=[con sord.]	!	!LO:DY:ed=brack	!	!	!	!	!	!	!LO:TX:t=([quarter]=92)	!LO:DY:ed=brack
!	!	!	!	!	!	!	!	!	!	!	!LO:T:n=2:a	!	!	!LO:T:n=1:b	!	!	!	!	!	!	!	!LO:T:n=1:b	!
(8FFL	pp	4%3r	.	4%3r	.	(8b~L	p	4dd~	4b~	p	4g] 4b]	p	2.ryy	2.D_	p	4%3r	.	4%3r	.	4%3r	.	4g] 4dd]	p
8D)	.	.	.	.	.	8g)	.	.	.	.	.	.	.	.	.	.	.	.	.	.	.	.	.
8DDJ	.	.	.	.	.	(8b~J	.	[8dd~	[8b~	.	8r	.	.	.	.	.	.	.	.	.	.	8r)	.
8DL	.	.	.	.	.	8gL)	.	8dd]~	8b]	.	4.r	.	.	.	.	.	.	.	.	.	.	4r	.
(8FF	.	.	.	.	.	(8cc~	.	4ee~	4cc~	.	.	.	.	.	.	.	.	.	.	.	.	.	.
8DJ)	.	.	.	.	.	8gJ)	.	.	.	.	.	.	.	.	.	.	.	.	.	.	.	8r	.
!!!ONB: in the original score, the Bass Clarinet line for bars 2-4 is doubled in the bassoon in cue notes, presumably for Bassoon II to play in the absence of a Bass Clarinettist.
=2	=2	=2	=2	=2	=2	=2	=2	=2	=2	=2	=2	=2	=2	=2	=2	=2	=2	=2	=2	=2	=2	=2	=2
*	*	*	*	*	*	*	*	*	*	*	*	*	*	*	*	*^	*	*	*	*^	*	*	*
*	*	*	*	*	*	*	*	*	*	*	*	*	*	*	*	*	*	*	*	*	*	*	*^	*	*
(4DD	.	4%3r	.	4%3r	.	(4b~	.	4dd~	4b~	.	4%3r	.	2.ryy	4.D_	.	2.ryy	2.ryy	.	4r	.	4r	4r	.	.	4%3r	.
!	!	!	!	!	!	!	!	!	!	!	!	!	!	!	!	!LO:TX:b:t=II.	!	!	!	!	!	!	!	!	!	!
.	.	.	.	.	.	.	.	.	.	.	.	.	.	.	.	.	.	.	.	.	.	.	.	.	.	.
8D)	.	.	.	.	.	8g)	.	8r	8r	.	.	.	.	.	.	.	.	.	8r	.	8r	8r	.	.	.	.
4r	.	.	.	.	.	4r	.	4r	4r	.	.	.	.	8D]	.	.	.	p p	8FFL	p	8r	8r	.	.	.	.
!	!	!	!	!	!	!	!	!	!	!	!	!	!	!	!	!	!	!	!	!	!	!	!LO:DY:a	!	!	!
.	.	.	.	.	.	.	.	.	.	.	.	.	.	8r	.	.	.	.	(8D	.	(8ddL	(8bXL	p	p	.	.
8r	.	.	.	.	.	8r	.	8r	8r	.	.	.	.	8r	.	.	.	.	8DDJ)	.	8gJ)	8gJ)	.	.	.	.
*	*	*	*	*	*	*	*	*	*	*	*	*	*v	*v	*	*	*	*	*	*	*	*	*	*	*	*
*	*	*	*	*	*	*	*	*	*	*	*	*	*	*	*	*	*	*	*	*	*	*v	*v	*	*
=3	=3	=3	=3	=3	=3	=3	=3	=3	=3	=3	=3	=3	=3	=3	=3	=3	=3	=3	=3	=3	=3	=3	=3	=3
*grp:A	*	*grp:A	*	*grp:A	*	*grp:A	*	*grp:A	*grp:A	*	*grp:A	*	*grp:A	*	*grp:A	*grp:A	*	*grp:A	*	*grp:A	*grp:A	*	*grp:A	*
(4D	.	4%3r	.	4%3r	.	4%3r	.	(4ee~	(4cc~	.	4%3r	.	4%3r	.	2.ryy	2.ryy	.	(4D	.	(4eeX	(4cc	.	4%3r	.
8FF)	.	.	.	.	.	.	.	8g)	8g)	.	.	.	.	.	.	.	.	8FF)	.	8g)	8g)	.	.	.
(4D	.	.	.	.	.	.	.	(4dd~	(4b~	.	.	.	.	.	.	.	.	(4D	.	(4dd	(4bX	.	.	.
8DD)	.	.	.	.	.	.	.	8g)	8g)	.	.	.	.	.	.	.	.	8DD)	.	8g)	8g)	.	.	.
*	*	*	*	*	*	*	*	*v	*v	*	*	*	*	*	*	*	*	*	*	*	*	*	*	*
!!LO:REH:t=25
=4	=4	=4	=4	=4	=4	=4	=4	=4	=4	=4	=4	=4	=4	=4	=4	=4	=4	=4	=4	=4	=4	=4	=4
*	*	*	*	*	*	*	*	*	*	*	*	*^	*	*	*	*	*	*	*	*	*	*	*
*grp:A	*	*grp:B	*	*grp:A	*	*grp:A	*	*grp:A	*	*grp:A	*	*grp:A	*grp:A	*	*grp:A	*grp:A	*	*grp:A	*	*grp:A	*grp:A	*	*grp:A	*
4r	.	4r	.	4r	.	4r	.	4r	.	4%3r	.	4rcc	4rd	.	4ryy@	2.ryy	.	(4D	.	(4dd	(4bX	.	4%3r	.
!	!	!LO:TX:a:t=senza sord.	!	!	!	!	!	!	!	!	!	!LO:TX:b:t=II.	!	!	!	!	!	!	!	!	!	!	!	!
8r	.	8r	.	8r	.	8r	.	8r	.	.	.	8r	8r	.	8ryy	.	.	8FF)	.	8g)	8g)	.	.	.
*	*	*	*	*	*	*	*	*	*	*	*	*	*	*	*	*	*	*	*	*v	*v	*	*	*
8r	.	4r	.	8r	.	8r	.	8r	.	.	.	4r	[4.D	pp	8rF	.	.	4r	.	4r	.	.	.
!LO:TX:a:t=pizz.	!	!	!	!	!	!LO:TX:a:t=unis.	!	!LO:TX:a:t=unis.	!	!	!	!	!	!	!LO:TX:a:t=I.	!	!	!	!	!	!	!	!
8DD"	p	.	.	(8ddL>v	p	(8bLv	p	(8bLv	p	.	.	.	.	.	8DD'L	.	p	.	.	.	.	.	.
!	!	!LO:TX:a:t=pizz.	!	!	!	!	!	!	!	!	!	!LO:TX:a:t=I.	!	!LO:DY:rj:a	!	!	!	!	!	!	!	!	!
8r	.	8D"	p	8gJ)	.	8gJ)	.	8gJ)	.	.	.	[8d	.	pp	8D'J	.	.	8r	.	8r	.	.	.
*	*	*	*	*	*	*	*	*	*	*	*	*	*	*	*v	*v	*	*	*	*	*	*	*
=5	=5	=5	=5	=5	=5	=5	=5	=5	=5	=5	=5	=5	=5	=5	=5	=5	=5	=5	=5	=5	=5	=5
!!LO:TX:vgrp=1:B:t= Più Mosso
8FF"	.	8r	.	(8dd^L>	.	(8b^L>	.	(8b^L>	.	4%3r	.	2.d_	2.D_	.	8FF'>L	.	4%3r	.	4r	.	4r	.
8r	.	8D"	.	8g)	.	8g)	.	8g)	.	.	.	.	.	.	8D'>	.	.	.	.	.	.	.
!	!	!	!	!	!	!	!	!	!	!	!	!	!	!	!	!	!	!	!LO:TX:a:t=1.	!LO:DY:rj:a	!	!
8BB-"X	.	8r	.	8bJ	.	8ddJ	.	8ddJ	.	.	.	.	.	.	8BB-X'>J	.	.	.	[>8dd/	p	8r	.
8r	.	8D"^	.	8gL	.	8gL	.	8gL<	.	.	.	.	.	.	8D'>L	.	.	.	4.dd/_	.	8r	.
!	!	!	!	!	!	!	!	!	!	!	!	!	!	!	!	!	!	!	!	!	!LO:TX:a:t=1.	!
8FF"	.	8r	.	(8cc	.	(8ee	.	(8ee	.	.	.	.	.	.	8FF'>	.	.	.	.	.	8r	.
.	.	.	.	.	.	.	.	.	.	.	.	.	.	.	.	.	.	.	.	.	.	.
8r	.	8D"	.	8gJ)	.	8gJ)	.	8gJ)	.	.	.	.	.	.	8D'>J	.	.	.	.	.	[8ddd)	.
=6	=6	=6	=6	=6	=6	=6	=6	=6	=6	=6	=6	=6	=6	=6	=6	=6	=6	=6	=6	=6	=6	=6
*	*	*	*	*	*	*	*	*	*	*	*	*	*	*	*^	*	*	*	*	*	*	*
8DD"	.	8r	.	(8b^	.	(8dd^	.	(8dd^	.	4%3r	.	2.d_	2.D_	.	8DD'L	4.r	.	4%3r	.	2.dd/_	.	2.ddd_	.
8r	.	8D"	.	4g)	.	4g)	.	4g)	.	.	.	.	.	.	8D'	.	.	.	.	.	.	.	.
8FF"	.	8r	.	.	.	.	.	.	.	.	.	.	.	.	8FF'J	.	.	.	.	.	.	.	.
!	!	!	!	!	!	!	!	!	!	!	!	!	!	!	!LO:TX:b:t=II.	!	!	!	!	!	!	!	!
8r	.	8D"^	.	/(8ddL	.	/(8b\L	.	(8bL	.	.	.	.	.	.	8D'	8rCC	.	.	.	.	.	.	.
8BB-"X	.	8r	.	8g)	.	8g)	.	8g)	.	.	.	.	.	.	8r'B	8BB-X'L	pp	.	.	.	.	.	.
8r	.	8D"	.	(<8ddJ	.	(<8bJ	.	(<8bJ	.	.	.	.	.	.	8r'B	8D'J	.	.	.	.	.	.	.
=7	=7	=7	=7	=7	=7	=7	=7	=7	=7	=7	=7	=7	=7	=7	=7	=7	=7	=7	=7	=7	=7	=7	=7
8FF"	.	8r	.	8gL)	.	8gL>)	.	8gL>)	.	4%3r	.	2.d_	2.D_	.	2.rB	8FF'L	.	4%3r	.	2.dd/_	.	2.ddd_	.
8r	.	8D"	.	8b	.	8dd	.	8dd	.	.	.	.	.	.	.	8D'	.	.	.	.	.	.	.
8BB-"X	.	8r	.	8gJ	.	8gJ	.	8gJ	.	.	.	.	.	.	.	8BB-X'J	.	.	.	.	.	.	.
8r	.	8D"^	.	(8ccL	.	\(8eeL	.	(8eeL	.	.	.	.	.	.	.	8D'L	.	.	.	.	.	.	.
8DD"	.	8r	.	8g)	.	8g)	.	8g)	.	.	.	.	.	.	.	8DD'	.	.	.	.	.	.	.
8r	.	8D"	.	(8bJ	.	(8ddJ	.	(8ddJ	.	.	.	.	.	.	.	8D'J	.	.	.	.	.	.	.
=8	=8	=8	=8	=8	=8	=8	=8	=8	=8	=8	=8	=8	=8	=8	=8	=8	=8	=8	=8	=8	=8	=8	=8
8FF"	.	8r	.	4g)	.	4g)	.	4g)	.	4%3r	.	8d]	8D]	.	4rB	8FF'L	.	4%3r	.	4.dd/]	.	2.ddd]	.
8r	.	8D"	.	.	.	.	.	.	.	.	.	[4d	[4D	.	.	8D'	.	.	.	.	.	.	.
8BB-"X	.	8r	.	(8dd	.	(8b	.	(8b	.	.	.	.	.	.	8rB	8BB-X'J	.	.	.	.	.	.	.
8r	.	8D"^	.	8g)	.	8g)	.	8g)	.	.	.	4.d_	4.D_	.	8rB	8D'\	.	.	.	8r	.	.	.
!	!	!	!	!	!	!	!	!LO:TX:t=P:problem: Cross-Measure Hanging Beams	!	!	!	!	!	!	!	!	!	!	!	!	!	!	!
!	!	!	!	!	!	!LO:TX:t=P:problem: Cross-Measure Hanging Beams	!	!	!	!	!	!	!	!	!	!	!	!	!	!	!	!	!
!	!	!	!	!LO:TX:t=P:problem: Cross-Measure Hanging Beams	!	!	!	!	!	!	!	!	!	!	!	!	!	!	!	!	!	!	!
8FF"	.	8r	.	(8bL	.	(8dd/L	.	(8ddL	.	.	.	.	.	.	8FF'L	8rGGG	.	.	.	[>4dd/	.	.	.
8r	.	8D"	.	8gJ)	.	8gJ)	.	8gJ)	.	.	.	.	.	.	8D'J	8rGGG	.	.	.	.	.	.	.
*	*	*	*	*	*	*	*	*	*	*	*	*v	*v	*	*	*	*	*	*	*	*	*	*
*	*	*	*	*	*	*	*	*	*	*	*	*	*	*v	*v	*	*	*	*	*	*	*
=||	=||	=||	=||	=||	=||	=||	=||	=||	=||	=||	=||	=||	=||	=||	=||	=||	=||	=||	=||	=||	=||
*-	*-	*-	*-	*-	*-	*-	*-	*-	*-	*-	*-	*-	*-	*-	*-	*-	*-	*-	*-	*-	*-
!!!system-decoration: [(s1,s2,s3,s4)][(s5,s6)][([(s7,s8)]s9,s10,s11)]
!!!RDF**kern: > = above
!!!RDF**kern: < = below
!!!EED: Rafael Laurindo
!!!EEV: 2021/09/21
!!!EED2: Gabriella Vici
!!!EEV2: 2022/03/02
!!!EED3: Bryan Bell
!!!EEV3: 2023/06/13
!!!Suter_Work_ID: Cop-13
!!!Suter_Example_Number: 710
!!!Suter_Example_ID: Cop-13/24/3-1[25]1-5
!!!Premiere_Location: Mexico City,Mexico
!!!Other_Tsigs: none
!!!Full_Unit_Duration: 10:44
!!!First_Publication_Year: 1939
!!!First_Public_Performance_Year: 1937
!!!Example_Total_Measures: 8
!!!Example_Timestamp_Duration: 11
!!!Example_Start_Tsig_Type: compound duple
!!!Example_Start_Tsig_Mean_Beat_Rate: 92
!!!Example_Start_Tsig_Beat_Rate: 92
!!!Example_Start_Tsig_Beat: dotted-quarter
!!!Example_Start_Tsig: 6/8
!!!Example_Start_Timestamp: 7:07
!!!Example_Start_Tempo_Expression: [Moderato molto]
!!!Example_Start_Notated_Beat_Rate: [92]
!!!Example_Start_Notated_Beat: [quarter]
!!!Example_Start_Measure: 245
!!!Example_Metadata_Validated: Y
!!!Example_End_Timestamp: 7:18
!!!Example_End_Measure: 252
!!!Example_Dataset: T
!!!Editorial_Comments: Example Start Notated Beat and Example Start Notated Beat Rate [quarter=92] based on most recent notated beat rate (SWFU, m. 228). Example Start Tempo Expression [Moderato molto] based on most recent notated tempo expression (SWFU, m. 228). Note that immediately preceding the excerpt, the score clarifies that quarter=dotted-quarter going into the 6/8 time signature change.
!!!Death_Place: North Tarrytown,United States
!!!Death_Date: 2-Dec-1990
!!!Changing_Tsig: no
!!!Birth_Place: Brooklyn,United States
!!!Birth_Date: 14-Nov-1900
!!!Audio_Example_Quarter_Note_Tempo:
!!!Audio_Example_Duration:
